section-13/vk.svg

<svg xmlns="http://www.w3.org/2000/svg" width="24" height="24" fill="none"><g clip-path="url(#a)"><path fill="#BABABA" d="M12.145 19.5c3.472 0 2.234-2.198 2.502-2.83-.004-.472-.008-.926.008-1.202.22.062.739.325 1.811 1.367 1.655 1.67 2.078 2.665 3.415 2.665h2.461c.78 0 1.186-.323 1.389-.594.196-.262.388-.722.178-1.438-.549-1.724-3.751-4.701-3.95-5.015a2.84 2.84 0 0 1 .103-.175h-.002c.632-.835 3.044-4.449 3.399-5.895a.019.019 0 0 0 .002-.008c.192-.66.016-1.088-.166-1.33-.274-.362-.71-.545-1.299-.545h-2.461c-.824 0-1.449.415-1.765 1.172-.529 1.345-2.015 4.111-3.129 5.09a64.114 64.114 0 0 1 .007-3.233c.036-1.535.152-3.029-1.441-3.029H9.339c-.998 0-1.953 1.09-.919 2.384.904 1.134.325 1.766.52 4.912-.76-.815-2.112-3.016-3.068-5.829-.268-.761-.674-1.466-1.817-1.466H1.594C.596 4.501 0 5.045 0 5.956 0 8.002 4.529 19.5 12.145 19.5ZM4.055 6.001c.217 0 .239 0 .4.457.979 2.883 3.175 7.149 4.779 7.149 1.205 0 1.205-1.235 1.205-1.7l-.001-3.702C10.372 6.98 9.926 6.37 9.633 6l3.508.004c.002.017-.02 4.095.01 5.083 0 1.403 1.114 2.207 2.853.447 1.835-2.071 3.104-5.167 3.155-5.293.075-.18.14-.241.376-.241H22.006l-.002.009c-.225 1.05-2.446 4.396-3.189 5.435l-.034.05c-.327.534-.593 1.124.045 1.954h.001c.058.07.209.234.429.462.684.706 3.03 3.12 3.238 4.08-.138.022-.288.006-2.613.011-.495 0-.882-.74-2.359-2.23-1.328-1.292-2.19-1.82-2.975-1.82-1.524 0-1.413 1.237-1.399 2.733.005 1.622-.005 1.109.006 1.211-.089.035-.344.105-1.009.105C5.8 18 1.668 7.929 1.509 6.004c.055-.005.812-.002 2.546-.003Z"/></g><defs><clipPath id="a"><path fill="#fff" d="M0 0h24v24H0z"/></clipPath></defs></svg>

<svg width="24" height="24" viewBox="0 0 24 24" fill="none" xmlns="http://www.w3.org/2000/svg">
<g clip-path="url(#clip0_671_50)">
<path d="M12.145 19.5C15.617 19.5 14.379 17.302 14.647 16.67C14.643 16.198 14.639 15.744 14.655 15.468C14.875 15.53 15.394 15.793 16.466 16.835C18.121 18.505 18.544 19.5 19.881 19.5H22.342C23.122 19.5 23.528 19.177 23.731 18.906C23.927 18.644 24.119 18.184 23.909 17.468C23.36 15.744 20.158 12.767 19.959 12.453C19.989 12.395 20.037 12.318 20.062 12.278H20.06C20.692 11.443 23.104 7.829 23.459 6.383C23.46 6.381 23.461 6.378 23.461 6.375C23.653 5.715 23.477 5.287 23.295 5.045C23.021 4.683 22.585 4.5 21.996 4.5H19.535C18.711 4.5 18.086 4.915 17.77 5.672C17.241 7.017 15.755 9.783 14.641 10.762C14.607 9.375 14.63 8.316 14.648 7.529C14.684 5.994 14.8 4.5 13.207 4.5H9.339C8.341 4.5 7.386 5.59 8.42 6.884C9.324 8.018 8.745 8.65 8.94 11.796C8.18 10.981 6.828 8.78 5.872 5.967C5.604 5.206 5.198 4.501 4.055 4.501H1.594C0.596 4.501 0 5.045 0 5.956C0 8.002 4.529 19.5 12.145 19.5ZM4.055 6.001C4.272 6.001 4.294 6.001 4.455 6.458C5.434 9.341 7.63 13.607 9.234 13.607C10.439 13.607 10.439 12.372 10.439 11.907L10.438 8.205C10.372 6.98 9.926 6.37 9.633 6L13.141 6.004C13.143 6.021 13.121 10.099 13.151 11.087C13.151 12.49 14.265 13.294 16.004 11.534C17.839 9.463 19.108 6.367 19.159 6.241C19.234 6.061 19.299 6 19.535 6H21.996H22.006C22.005 6.003 22.005 6.006 22.004 6.009C21.779 7.059 19.558 10.405 18.815 11.444C18.803 11.46 18.792 11.477 18.781 11.494C18.454 12.028 18.188 12.618 18.826 13.448H18.827C18.885 13.518 19.036 13.682 19.256 13.91C19.94 14.616 22.286 17.03 22.494 17.99C22.356 18.012 22.206 17.996 19.881 18.001C19.386 18.001 18.999 17.261 17.522 15.771C16.194 14.479 15.332 13.951 14.547 13.951C13.023 13.951 13.134 15.188 13.148 16.684C13.153 18.306 13.143 17.793 13.154 17.895C13.065 17.93 12.81 18 12.145 18C5.8 18 1.668 7.929 1.509 6.004C1.564 5.999 2.321 6.002 4.055 6.001Z" fill="#BABABA"/>
</g>
<defs>
<clipPath id="clip0_671_50">
<rect width="24" height="24" fill="white"/>
</clipPath>
</defs>
</svg>
